lib/healthicons/icons/solid/specialties/orthopaedics.svg

<svg fill="none" height="48" viewBox="0 0 48 48" width="48" xmlns="http://www.w3.org/2000/svg"><path clip-rule="evenodd" d="m9 6c-1.65685 0-3 1.34315-3 3v30c0 1.6569 1.34315 3 3 3h30c1.6569 0 3-1.3431 3-3v-30c0-1.65685-1.3431-3-3-3zm8.25 5.9379c0-.6131.5643-1.0704 1.1669-.9576 4.1915.7841 6.9731.7935 11.1653.0026.6026-.1137 1.1678.3431 1.1678.9564 0 .5336.4326.9661.9662.9661h.2838c.5523 0 1 .4477 1 1v.874c0 .5522-.4477 1-1 1h-.25c-.5523 0-1 .4477-1 1v.3869c0 .4532-.306.8513-.7456.9612-4.4656 1.1168-7.3278 1.1157-11.998-.0055-.4447-.1067-.7564-.5073-.7564-.9646v-.378c0-.5523-.4477-1-1-1h-.25c-.5523 0-1-.4478-1-1v-.874c0-.5523.4477-1 1-1h.2825c.5343 0 .9675-.4332.9675-.9675zm2.25.7998c.5523 0 1 .4477 1 1v2.2402c0 .5523-.4477 1-1 1s-1-.4477-1-1v-2.2402c0-.5523.4477-1 1-1zm-1.0831 7.2426c-.6026-.1128-1.1669.3445-1.1669.9576 0 .5343-.4332.9675-.9675.9675h-.2825c-.5523 0-1 .4477-1 1v.874c0 .5522.4477 1 1 1h.25c.5523 0 1 .4477 1 1v.378c0 .4573.3117.8579.7564.9646 4.6702 1.1212 7.5324 1.1223 11.998.0055.4396-.1099.7456-.508.7456-.9612v-.3869c0-.5523.4477-1 1-1h.25c.5523 0 1-.4478 1-1v-.874c0-.5523-.4477-1-1-1h-.2838c-.5336 0-.9662-.4325-.9662-.9661 0-.6133-.5652-1.0701-1.1678-.9564-4.1922.7909-6.9738.7815-11.1653-.0026zm2.0831 2.7574c0-.5523-.4477-1-1-1s-1 .4477-1 1v2.2402c0 .5523.4477 1 1 1s1-.4477 1-1zm-3.25 7.2002c0-.6131.5643-1.0704 1.1669-.9576 4.1915.7841 6.9731.7935 11.1653.0026.6026-.1137 1.1678.3431 1.1678.9564 0 .5336.4326.9661.9662.9661h.2838c.5523 0 1 .4477 1 1v.874c0 .5522-.4477 1-1 1h-.25c-.5523 0-1 .4477-1 1v.3869c0 .4532-.306.8513-.7456.9612-4.4656 1.1168-7.3278 1.1157-11.998-.0055-.4447-.1067-.7564-.5073-.7564-.9646v-.378c0-.5523-.4477-1-1-1h-.25c-.5523 0-1-.4478-1-1v-.874c0-.5523.4477-1 1-1h.2825c.5343 0 .9675-.4332.9675-.9675zm2.25.7998c.5523 0 1 .4477 1 1v2.2402c0 .5523-.4477 1-1 1s-1-.4477-1-1v-2.2402c0-.5523.4477-1 1-1z" fill="#333" fill-rule="evenodd"/></svg>

<svg width="48" height="48" viewBox="0 0 48 48" fill="none" xmlns="http://www.w3.org/2000/svg">
<path fill-rule="evenodd" clip-rule="evenodd" d="M9 6C7.34315 6 6 7.34315 6 9V39C6 40.6569 7.34315 42 9 42H39C40.6569 42 42 40.6569 42 39V9C42 7.34315 40.6569 6 39 6H9ZM17.25 11.9379C17.25 11.3248 17.8143 10.8675 18.4169 10.9803C22.6084 11.7644 25.39 11.7738 29.5822 10.9829C30.1848 10.8692 30.75 11.326 30.75 11.9393C30.75 12.4729 31.1826 12.9054 31.7162 12.9054H32C32.5523 12.9054 33 13.3531 33 13.9054V14.7794C33 15.3316 32.5523 15.7794 32 15.7794H31.75C31.1977 15.7794 30.75 16.2271 30.75 16.7794V17.1663C30.75 17.6195 30.444 18.0176 30.0044 18.1275C25.5388 19.2443 22.6766 19.2432 18.0064 18.122C17.5617 18.0153 17.25 17.6147 17.25 17.1574V16.7794C17.25 16.2271 16.8023 15.7794 16.25 15.7794H16C15.4477 15.7794 15 15.3316 15 14.7794V13.9054C15 13.3531 15.4477 12.9054 16 12.9054H16.2825C16.8168 12.9054 17.25 12.4722 17.25 11.9379ZM19.5 12.7377C20.0523 12.7377 20.5 13.1854 20.5 13.7377V15.9779C20.5 16.5302 20.0523 16.9779 19.5 16.9779C18.9477 16.9779 18.5 16.5302 18.5 15.9779V13.7377C18.5 13.1854 18.9477 12.7377 19.5 12.7377ZM18.4169 19.9803C17.8143 19.8675 17.25 20.3248 17.25 20.9379C17.25 21.4722 16.8168 21.9054 16.2825 21.9054H16C15.4477 21.9054 15 22.3531 15 22.9054V23.7794C15 24.3316 15.4477 24.7794 16 24.7794H16.25C16.8023 24.7794 17.25 25.2271 17.25 25.7794V26.1574C17.25 26.6147 17.5617 27.0153 18.0064 27.122C22.6766 28.2432 25.5388 28.2443 30.0044 27.1275C30.444 27.0176 30.75 26.6195 30.75 26.1663V25.7794C30.75 25.2271 31.1977 24.7794 31.75 24.7794H32C32.5523 24.7794 33 24.3316 33 23.7794V22.9054C33 22.3531 32.5523 21.9054 32 21.9054H31.7162C31.1826 21.9054 30.75 21.4729 30.75 20.9393C30.75 20.326 30.1848 19.8692 29.5822 19.9829C25.39 20.7738 22.6084 20.7644 18.4169 19.9803ZM20.5 22.7377C20.5 22.1854 20.0523 21.7377 19.5 21.7377C18.9477 21.7377 18.5 22.1854 18.5 22.7377V24.9779C18.5 25.5302 18.9477 25.9779 19.5 25.9779C20.0523 25.9779 20.5 25.5302 20.5 24.9779V22.7377ZM17.25 29.9379C17.25 29.3248 17.8143 28.8675 18.4169 28.9803C22.6084 29.7644 25.39 29.7738 29.5822 28.9829C30.1848 28.8692 30.75 29.326 30.75 29.9393C30.75 30.4729 31.1826 30.9054 31.7162 30.9054H32C32.5523 30.9054 33 31.3531 33 31.9054V32.7794C33 33.3316 32.5523 33.7794 32 33.7794H31.75C31.1977 33.7794 30.75 34.2271 30.75 34.7794V35.1663C30.75 35.6195 30.444 36.0176 30.0044 36.1275C25.5388 37.2443 22.6766 37.2432 18.0064 36.122C17.5617 36.0153 17.25 35.6147 17.25 35.1574V34.7794C17.25 34.2271 16.8023 33.7794 16.25 33.7794H16C15.4477 33.7794 15 33.3316 15 32.7794V31.9054C15 31.3531 15.4477 30.9054 16 30.9054H16.2825C16.8168 30.9054 17.25 30.4722 17.25 29.9379ZM19.5 30.7377C20.0523 30.7377 20.5 31.1854 20.5 31.7377V33.9779C20.5 34.5302 20.0523 34.9779 19.5 34.9779C18.9477 34.9779 18.5 34.5302 18.5 33.9779V31.7377C18.5 31.1854 18.9477 30.7377 19.5 30.7377Z" fill="#333333"/>
</svg>
